!!!OTL: WIE MIR DEINE FREUDEN WINKEN
!!!ARE: Europa, Mitteleuropa, Deutschland
!!!SCT: B0007
!!!YEM: Copyright 1995, estate of Helmut Schaffrath.
**kern
*ICvox
*Ivox
*M4/4
*k[f#]
*G:
{4b
4a
=1
4.g
8d
4g
4a
=2
4b
4g}
{4b
4cc
=3
4dd
4b
4ee
4cc
=4
2a}
{4b
4a
=5
4.g
8d
4g
4a
=6
4b
4g}
{4a
4a
=7
8a
8b
8cc#
8dd
4ee
4cc#
=8
2dd}
{4dd
4dd
=9
4ee
4b
4cc
4dd
=10
4dd
4cc}
{4a
8b
8cc
=11
4dd
4a
4b
4cc
=12
4cc
4b}
{4d
4d
=13
4g
4d
4a
4d
=14
4b
4g}
{4cc
4a
=15
4.dd
8cc
4b
4a
=16
2g}
==
!!!AGN: politisch, national, Vaterlands - Lied
!!!ONB: ESAC (Essen Associative Code) Database: BOEHME
!!!AMT: simple quadruple
!!!AIN: vox
!!!EED: Helmut Schaffrath
!!!EEV: 1.0
*-
